webapp/src/assets/icons/cloudproviders/aws/security_identify_compliance/role.svg

<?xml version="1.0" encoding="UTF-8"?>
<svg width="48px" height="48px" viewBox="0 0 48 48" version="1.1" xmlns="http://www.w3.org/2000/svg" xmlns:xlink="http://www.w3.org/1999/xlink">
    <title>Icon-Resource/Security-Identity-and-Compliance/Res_AWS-Identity-Access-Management_Role_48</title>
    <g id="Icon-Resource/Security-Identity-and-Compliance/Res_AWS-Identity-Access-Management_Role_48" stroke="none" stroke-width="1" fill="none" fill-rule="evenodd">
        <path d="M44.0827,32.581 C43.9267,32.592 43.7697,32.604 43.6207,32.619 C43.0987,32.662 42.5527,32.714 42.0007,32.772 L41.8327,32.79 C40.0677,32.972 38.0697,33.177 37.1187,33.047 C36.5247,32.962 35.4307,32.487 34.2707,31.984 C32.3047,31.132 29.8567,30.07 27.6437,29.9 C24.5977,29.666 19.3347,30.24 15.9407,31.831 C13.9787,31.743 12.1587,31.215 10.7447,30.343 C10.7387,30.071 10.7327,29.799 10.7327,29.694 C10.7327,25.558 12.6707,21.679 16.0527,19.044 C18.3497,17.701 20.9967,16.992 23.7127,16.992 C29.8337,16.992 35.2657,20.609 37.3847,25.934 L36.5717,25.934 C35.7577,25.934 35.0757,26.51 34.9087,27.274 C34.7707,27.222 34.6447,27.175 34.4967,27.118 C32.4677,26.335 29.6837,25.264 26.4657,25.455 C21.7607,25.731 19.4457,26.015 17.6227,26.535 L18.1717,28.459 C19.8397,27.982 22.0397,27.719 26.5827,27.451 C29.3667,27.293 31.9197,28.269 33.7767,28.984 C34.1717,29.137 34.5287,29.27 34.8677,29.391 L34.8677,29.596 C34.8677,30.535 35.6327,31.3 36.5717,31.3 L40.2187,31.3 C41.1557,31.3 41.9197,30.538 41.9227,29.602 L42.2767,29.57 C42.8697,29.517 43.4147,29.464 43.8717,29.419 L44.0827,29.398 L44.0827,32.581 Z M9.7987,34.249 C7.1487,34.612 5.0567,34.288 4.1907,33.753 C4.7157,33.382 5.9007,32.863 6.7347,32.499 C7.4567,32.184 8.1877,31.851 8.8947,31.495 C10.0487,32.374 11.4777,33.033 13.0597,33.426 C12.1447,33.794 11.0117,34.084 9.7987,34.249 L9.7987,34.249 Z M36.8677,29.3 L39.9227,29.3 L39.9227,27.934 L36.8677,27.934 L36.8677,29.3 Z M26.5857,13 C34.9537,13 41.9817,19.295 43.0167,27.492 C42.7287,27.52 42.4247,27.549 42.1037,27.578 L41.9187,27.594 C41.8947,26.676 41.1437,25.934 40.2187,25.934 L39.5077,25.934 C37.3067,19.457 30.9317,14.992 23.7127,14.992 C21.0387,14.992 18.4227,15.604 16.0717,16.767 C16.0887,16.753 16.1027,16.738 16.1177,16.725 C19.0587,14.323 22.7757,13 26.5857,13 L26.5857,13 Z M45.5267,27.794 C45.3817,27.663 45.2107,27.568 45.0287,27.496 C43.9827,18.185 36.0497,11 26.5857,11 C22.3167,11 18.1497,12.483 14.8537,15.175 C10.5007,18.719 8.0047,23.97 8.0047,29.581 C8.0047,29.622 8.0077,29.663 8.0077,29.704 C7.3407,30.039 6.6357,30.359 5.9347,30.666 C3.7987,31.6 2.2557,32.274 2.0257,33.492 C1.9677,33.801 1.9577,34.406 2.5457,34.994 C3.5827,36.031 5.5727,36.403 7.5947,36.403 C8.4367,36.403 9.2827,36.339 10.0687,36.231 C11.4077,36.049 13.9077,35.558 15.6047,34.316 C18.2827,32.375 24.3377,31.649 27.4907,31.894 C29.3697,32.039 31.6457,33.026 33.4757,33.819 C34.8717,34.426 35.9757,34.904 36.8417,35.027 C38.0327,35.19 39.9777,34.99 42.0367,34.779 L42.2097,34.762 C42.7477,34.704 43.2777,34.654 43.8017,34.611 C44.0167,34.59 44.2297,34.575 44.5137,34.555 C45.3937,34.493 46.0827,33.755 46.0827,32.875 L46.0827,29.046 C46.0827,28.568 45.8807,28.112 45.5267,27.794 L45.5267,27.794 Z" id="AWS-Identity-and-Access-Management_Role_Resource-Icon_light-bg" fill="#DD344C"></path>
    </g>
</svg>

<svg width="48" height="48" xmlns="http://www.w3.org/2000/svg"><path d="M44.083 32.581a72.853 72.853 0 0 0-2.082.191l-.168.018c-1.765.182-3.763.387-4.714.257-.594-.085-1.688-.56-2.848-1.063-1.966-.852-4.414-1.914-6.627-2.084-3.046-.234-8.31.34-11.703 1.931-1.962-.088-3.782-.616-5.196-1.488a46.44 46.44 0 0 1-.012-.649c0-4.136 1.938-8.015 5.32-10.65a15.176 15.176 0 0 1 7.66-2.052c6.12 0 11.553 3.617 13.672 8.942h-.813c-.814 0-1.496.576-1.663 1.34l-.412-.156c-2.03-.783-4.813-1.854-8.031-1.663-4.705.276-7.02.56-8.843 1.08l.549 1.924c1.668-.477 3.868-.74 8.41-1.008 2.785-.158 5.338.818 7.195 1.533.395.153.752.286 1.09.407v.205c0 .939.766 1.704 1.705 1.704h3.647c.937 0 1.7-.762 1.704-1.698l.354-.032a175.57 175.57 0 0 0 1.595-.151l.21-.021v3.183ZM9.799 34.249c-2.65.363-4.742.039-5.608-.496.525-.371 1.71-.89 2.544-1.254a43.482 43.482 0 0 0 2.16-1.004c1.154.879 2.583 1.538 4.165 1.931-.915.368-2.048.658-3.261.823ZM36.868 29.3h3.055v-1.366h-3.055V29.3ZM26.586 13c8.368 0 15.396 6.295 16.43 14.492-.287.028-.591.057-.912.086l-.185.016a1.704 1.704 0 0 0-1.7-1.66h-.711c-2.201-6.477-8.576-10.942-15.795-10.942-2.674 0-5.29.612-7.641 1.775.017-.014.03-.029.046-.042A16.59 16.59 0 0 1 26.586 13Zm18.94 14.794a1.625 1.625 0 0 0-.497-.298C43.983 18.185 36.049 11 26.586 11a18.595 18.595 0 0 0-11.732 4.175 18.504 18.504 0 0 0-6.85 14.406c0 .041.004.082.004.123-.667.335-1.372.655-2.073.962-2.136.934-3.68 1.608-3.91 2.826-.057.309-.067.914.52 1.502 1.038 1.037 3.028 1.409 5.05 1.409.842 0 1.688-.064 2.474-.172 1.339-.182 3.839-.673 5.536-1.915 2.678-1.941 8.733-2.667 11.886-2.422 1.879.145 4.155 1.132 5.985 1.925 1.396.607 2.5 1.085 3.366 1.208 1.19.163 3.136-.037 5.195-.248l.173-.017a62.627 62.627 0 0 1 1.592-.151c.215-.021.428-.036.712-.056.88-.062 1.569-.8 1.569-1.68v-3.829c0-.478-.202-.934-.556-1.252Z" fill="#DD344C" fill-rule="evenodd"/></svg>
